X:1
T: Cataracts are Gone, Thank you, Dr. Dunphy
C: Bruce Shawyer
R:Reel
Q:232
K:Am
M:4/4
L:1/8
"C"c2ec Ace2|"Am"Ac ec A2A2|"F"F2Ac fcA2|"Am"Ac Ac A2E2|"Dm"D2FD A,DF2|"Am"Ac ec A2A2|"C"c2ec Ace2|"F"f2cA F2F2|
"Em"EF GA B2B2|"Am"AB cd e2e2|"Dm"fed2 fed2|"Em"BAGF E2E2|"G"GA Bc d2d2|"Am"AB cd e2e2|"G"fe dc BAG2|"Em"dc BA GFE2|
"F"F2Ac fcA2|"Am"Ac ec A2A2|"Am"E2Ac ecA2|"G"BA GB g2g2|"Dm"de fe def2|"Dm"fg ag fga2|"Am"c2ec Ace2|"G"g2dB G2G2|
"Dm"DE FG A2A2|"Dm"de fg a2a2|"Dm"ag fe d2A2|"G"fe dc BAG2|"G"GA Bc d2d2|"G"dc BA G2B2|"Am"gf ed cBA2|"Dmaj"GA Bc d4||
